cloudphone-mobile/media/svg/media-speaker.svg

<svg xmlns="http://www.w3.org/2000/svg" xmlns:xlink="http://www.w3.org/1999/xlink" preserveAspectRatio="xMidYMid" width="112" height="84" viewBox="0 0 112 84">
  <defs>
    <style>
      .cls-1 {
        stroke: #c0c9d3;
        stroke-linecap: round;
        stroke-linejoin: round;
        stroke-width: 2px;
        fill: none;
        fill-rule: evenodd;
      }
    </style>
  </defs>
  <g>
    <path d="M98.000,54.106 C98.000,66.235 98.000,76.000 98.000,76.000 C98.000,79.314 95.314,82.000 92.000,82.000 C88.686,82.000 86.000,79.314 86.000,76.000 C86.000,76.000 86.000,66.201 86.000,54.042 M86.000,29.946 C86.000,17.793 86.000,8.000 86.000,8.000 C86.000,4.686 88.686,2.000 92.000,2.000 C95.314,2.000 98.000,4.686 98.000,8.000 C98.000,8.000 98.000,17.834 98.000,30.022 " class="cls-1"/>
    <path d="M86.000,10.000 L6.000,38.000 " class="cls-1"/>
    <path d="M86.000,74.000 L6.000,46.000 " class="cls-1"/>
    <path d="M4.000,34.000 C5.105,34.000 6.000,34.895 6.000,36.000 L6.000,48.000 C6.000,49.105 5.105,50.000 4.000,50.000 C2.895,50.000 2.000,49.105 2.000,48.000 L2.000,36.000 C2.000,34.895 2.895,34.000 4.000,34.000 Z" class="cls-1"/>
    <path d="M58.000,20.000 L58.000,64.000 " class="cls-1"/>
    <path d="M78.000,40.000 L84.000,34.000 L90.000,40.000 L98.000,35.000 L103.000,41.000 L110.000,34.000 " class="cls-1"/>
    <path d="M72.000,46.000 L78.000,51.000 L84.000,45.000 L91.000,51.000 L100.000,44.000 L106.000,50.000 " class="cls-1"/>
    <path d="M20.000,51.000 L20.000,59.000 L44.000,69.000 L44.000,60.000 " class="cls-1"/>
  </g>
</svg>

<svg xmlns="http://www.w3.org/2000/svg" preserveAspectRatio="xMidYMid" width="112" height="84" viewBox="0 0 112 84"><defs><style>.cls-1{stroke:#c0c9d3;stroke-linecap:round;stroke-linejoin:round;stroke-width:2px;fill:none;fill-rule:evenodd}</style></defs><path d="M98 54.106V76a6 6 0 1 1-12 0V54.042m0-24.096V8a6 6 0 1 1 12 0v22.022M86 10L6 38M86 74L6 46M4 34a2 2 0 0 1 2 2v12a2 2 0 1 1-4 0V36a2 2 0 0 1 2-2zM58 20v44M78 40l6-6 6 6 8-5 5 6 7-7M72 46l6 5 6-6 7 6 9-7 6 6M20 51v8l24 10v-9" class="cls-1"/></svg>
